X: 387
T: The Lowbacked Car
M:6/8
L:1/8
B:O'Neill's 387
N:"Playfully."
N:"2nd Setting."
N:H is a fermata.
Z:Transcribed by Chris Falt, cfalt@trytel.com
K:F
F|F2A A2c|B2G z2E|F2A c2c|c3 z2A|
B2B G2G|A2A F2A|B2G F2E|F3 z2F|
F2B B2d|d2c c2F|F2B B2d|c2z z2F|
F2f f2d|d2c cBA|G2F G2A|Hc3 A2G|
FDC F2F|F3 z2A|GFD G2G|G3 ZAB|
cBA cBA|fed HcAG|FDC F2F|F3 z2||


